img/icons/user/infoPanel/envelope.svg

<svg width="24" height="24" viewBox="0 0 24 24" fill="none" xmlns="http://www.w3.org/2000/svg">
<path d="M6.66667 7.99999L12.1524 12L17.3333 7.99999M18 9.46663V14.5333C18 15.28 18.0001 15.6535 17.8548 15.9387C17.727 16.1896 17.5227 16.3935 17.2719 16.5213C16.9866 16.6666 16.6135 16.6667 15.8668 16.6667H8.13346C7.38673 16.6667 7.01308 16.6666 6.72786 16.5213C6.47698 16.3935 6.27316 16.1896 6.14532 15.9387C6 15.6535 6 15.28 6 14.5333V9.46663C6 8.71989 6 8.34657 6.14532 8.06136C6.27316 7.81047 6.47698 7.60648 6.72786 7.47865C7.01308 7.33333 7.38673 7.33333 8.13346 7.33333H15.8668C16.6135 7.33333 16.9866 7.33333 17.2719 7.47865C17.5227 7.60648 17.727 7.81047 17.8548 8.06136C18.0001 8.34657 18 8.71989 18 9.46663Z" stroke="#8C8D92" stroke-width="2" stroke-linecap="round" stroke-linejoin="round"/>
</svg>

<svg width="24" height="24" fill="none" xmlns="http://www.w3.org/2000/svg"><path d="m6.667 8 5.485 4 5.181-4M18 9.467v5.066c0 .747 0 1.12-.145 1.406-.128.25-.332.454-.583.582-.285.146-.659.146-1.405.146H8.133c-.746 0-1.12 0-1.405-.146a1.333 1.333 0 0 1-.583-.582C6 15.653 6 15.28 6 14.533V9.467c0-.747 0-1.12.145-1.406.128-.25.332-.455.583-.582.285-.146.659-.146 1.405-.146h7.734c.746 0 1.12 0 1.405.146.25.127.455.331.583.582.145.286.145.659.145 1.406Z" stroke="#8C8D92" stroke-width="2" stroke-linecap="round" stroke-linejoin="round"/></svg>
